X: 37075
T: Silver Spire, The
R: reel
M: 4/4
K: Fmajor
C2|F2 AG FAce|fefa gecA|(B<d)G>B (A<c)F>A|BAGF EGB,E|
F2 AG FAce|fefa gecA|(B<d)G>B A<cF>A|GFEG F2:|
|:C2|CDEF GABG|AFGA Bcde|(fe).f.c defa|(ba).b.g fedc|
fgaf (e<g)c>e/|fefd cAFA|(B<d)G>B (A<c)F>A|GFEG F2:|

